editor/icons/NavigationObstacle3D.svg

<svg clip-rule="evenodd" fill-rule="evenodd" stroke-linejoin="round" stroke-miterlimit="2" viewBox="0 0 16 16" xmlns="http://www.w3.org/2000/svg"><g fill-rule="nonzero"><path d="m4.6074219 8.3789062c-1.798.9280001-3.6074219 2.0720938-3.6074219 2.6210938 0 1 6 4 7 4v-2c-2.5 0-5-1-4-3z" fill="#e0e0e0" fill-opacity=".501961"/><path d="m8 .875c-.375 0-.75.375-1 1.125l-3 8c-1 2 1.5 3 4 3v-3.75c-.875 0-1.75-.25-2.5-.75l1-3.5c.5.25 1 .375 1.5.375z" fill="#e0e0e0"/><g fill="#fc7f7f"><path d="m11.392578 8.3789062.607422 1.6210938c1.002342 2.004685-1.511742 3.004696-4.0175781 3v1.998047c.0053893.000157.0124503.001953.0175781.001953 1 0 7-3 7-4 0-.549-1.809422-1.6930938-3.607422-2.6210938z" fill-opacity=".501961"/><path d="m8 .875c-.00585 0-.011729.001771-.017578.001953v4.498047c.5058535.0029611 1.0117243-.1220732 1.517578-.375l1 3.5c-.7550159.5033439-1.6367318.7533663-2.5175781.75v3.75c2.5058361.004696 5.0199201-.995315 4.0175781-3l-3-8c-.25-.75-.625-1.125-1-1.125z"/></g></g></svg>

<svg height="16" width="16" viewBox="0 0 16 16" xmlns="http://www.w3.org/2000/svg"><g fill="#e0e0e0"><path d="M4.607 8.379C2.81 9.307 1 10.45 1 11c0 1 6 4 7 4v-2c-2.5 0-5-1-4-3z" fill-opacity=".5"/><path d="M8 .875c-.375 0-.75.375-1 1.125l-3 8c-1 2 1.5 3 4 3V9.25c-.875 0-1.75-.25-2.5-.75l1-3.5c.5.25 1 .375 1.5.375z"/></g><g fill="#fc7f7f"><path d="M11.393 8.379 12 10c1.002 2.005-1.512 3.005-4.018 3v1.998L8 15c1 0 7-3 7-4 0-.549-1.81-1.693-3.607-2.621z" fill-opacity=".5"/><path d="m8 .875-.018.002v4.498A3.323 3.323 0 0 0 9.5 5l1 3.5a4.508 4.508 0 0 1-2.518.75V13c2.506.005 5.02-.995 4.018-3L9 2C8.75 1.25 8.375.875 8 .875z"/></g></svg>
